assets/images/appstore.svg

<?xml version="1.0" encoding="UTF-8"?>
<svg width="60px" height="60px" viewBox="0 0 60 60" version="1.1" xmlns="http://www.w3.org/2000/svg" xmlns:xlink="http://www.w3.org/1999/xlink">
    <!-- Generator: Sketch 58 (84663) - https://sketch.com -->
    <title>appstore</title>
    <desc>Created with Sketch.</desc>
    <g id="appstore" stroke="none" stroke-width="1" fill="none" fill-rule="evenodd">
        <path d="M29.9879032,13.6572581 L31.0887097,11.7580645 C31.766129,10.5725806 33.2782258,10.1733871 34.4637097,10.8508065 C35.6491935,11.5282258 36.0483871,13.0403226 35.3709677,14.2258065 L24.7862903,32.5524194 L32.4435484,32.5524194 C34.9233871,32.5524194 36.3145161,35.4677419 35.2379032,37.4879032 L12.7983871,37.4879032 C11.4314516,37.4879032 10.3306452,36.3870968 10.3306452,35.0201613 C10.3306452,33.6532258 11.4314516,32.5524194 12.7983871,32.5524194 L19.0887097,32.5524194 L27.1451613,18.5927419 L24.6290323,14.2258065 C23.9516129,13.0403226 24.3508065,11.5403226 25.5362903,10.8508065 C26.7217742,10.1733871 28.2217742,10.5725806 28.9112903,11.7580645 L29.9879032,13.6572581 L29.9879032,13.6572581 Z M20.4677419,40.0282258 L18.0967742,44.141129 C17.4193548,45.3266129 15.9072581,45.7258065 14.7217742,45.0483871 C13.5362903,44.3709677 13.1370968,42.858871 13.8145161,41.6733871 L15.5806452,38.625 C17.5645161,38.0080645 19.1854839,38.4798387 20.4677419,40.0282258 L20.4677419,40.0282258 Z M40.8991935,32.5645161 L47.3225806,32.5645161 C48.6895161,32.5645161 49.7903226,33.6653226 49.7903226,35.0322581 C49.7903226,36.3991935 48.6895161,37.5 47.3225806,37.5 L43.7540323,37.5 L46.1612903,41.6733871 C46.8387097,42.858871 46.4395161,44.358871 45.2540323,45.0483871 C44.0685484,45.7258065 42.5685484,45.3266129 41.8790323,44.141129 C37.8266129,37.1129032 34.7782258,31.8508065 32.7580645,28.3427419 C30.6895161,24.7741935 32.1653226,21.1935484 33.6290323,19.983871 C35.25,22.766129 37.6693548,26.9637097 40.8991935,32.5645161 L40.8991935,32.5645161 Z M30,0 C13.4274194,0 0,13.4274194 0,30 C0,46.5725806 13.4274194,60 30,60 C46.5725806,60 60,46.5725806 60,30 C60,13.4274194 46.5725806,0 30,0 Z M56.1290323,30 C56.1290323,44.358871 44.5040323,56.1290323 30,56.1290323 C15.641129,56.1290323 3.87096774,44.5040323 3.87096774,30 C3.87096774,15.641129 15.4959677,3.87096774 30,3.87096774 C44.358871,3.87096774 56.1290323,15.4959677 56.1290323,30 Z" id="Logo" fill="#FFFFFF" fill-rule="nonzero"></path>
    </g>
</svg>

<svg width="60" height="60" xmlns="http://www.w3.org/2000/svg"><path d="M29.988 13.657l1.1-1.899a2.47 2.47 0 013.376-.907 2.47 2.47 0 01.907 3.375L24.786 32.552h7.658c2.48 0 3.87 2.916 2.794 4.936h-22.44a2.463 2.463 0 01-2.467-2.468c0-1.367 1.1-2.468 2.467-2.468h6.29l8.057-13.96-2.516-4.366a2.473 2.473 0 01.907-3.375 2.473 2.473 0 013.375.907l1.077 1.9zm-9.52 26.371l-2.371 4.113a2.47 2.47 0 01-3.375.907 2.47 2.47 0 01-.907-3.375l1.766-3.048c1.984-.617 3.604-.145 4.887 1.403zm20.431-7.463h6.424c1.367 0 2.467 1.1 2.467 2.467s-1.1 2.468-2.467 2.468h-3.569l2.407 4.173a2.473 2.473 0 01-.907 3.375 2.473 2.473 0 01-3.375-.907c-4.052-7.028-7.1-12.29-9.12-15.798-2.07-3.569-.594-7.15.87-8.36 1.621 2.783 4.04 6.98 7.27 12.582zM30 0C13.427 0 0 13.427 0 30s13.427 30 30 30 30-13.427 30-30S46.573 0 30 0zm26.129 30c0 14.359-11.625 26.129-26.129 26.129C15.641 56.129 3.871 44.504 3.871 30 3.871 15.641 15.496 3.871 30 3.871c14.359 0 26.129 11.625 26.129 26.129z" fill="#FFF" fill-rule="nonzero"/></svg>
